mono-glyphs/document-w.svg

<svg xmlns="http://www.w3.org/2000/svg" width="1024" height="1024" fill="none" viewBox="0 0 1024 1024">
  <path fill="#fff" d="M896 392v504c0 17.667-3.333 34.25-10 49.75s-15.833 29.083-27.5 40.75c-11.667 11.667-25.25 20.83-40.75 27.5-15.5 6.67-32.083 10-49.75 10H256c-17.667 0-34.25-3.33-49.75-10s-29.083-15.833-40.75-27.5c-11.667-11.667-20.833-25.25-27.5-40.75-6.667-15.5-10-32.083-10-49.75V128c0-17.667 3.333-34.25 10-49.75s15.833-29.083 27.5-40.75c11.667-11.667 25.25-20.833 40.75-27.5C221.75 3.333 238.333 0 256 0h248c17 0 33.333 3.25 49 9.75 15.667 6.5 29.5 15.75 41.5 27.75l264 264c12 12 21.25 25.833 27.75 41.5 6.5 15.667 9.75 32 9.75 49ZM512 64.5a16.444 16.444 0 0 0-4-.5H256c-9 0-17.333 1.667-25 5-7.667 3.333-14.417 7.917-20.25 13.75S200.333 95.333 197 103s-5 16-5 25v768c0 9 1.667 17.417 5 25.25 3.333 7.833 7.833 14.583 13.5 20.25s12.417 10.167 20.25 13.5 16.25 5 25.25 5h512c9 0 17.333-1.667 25-5 7.667-3.333 14.417-7.917 20.25-13.75S823.667 928.667 827 921s5-16 5-25V388c0-1.333-.167-2.667-.5-4H640c-17.667 0-34.25-3.333-49.75-10s-29.083-15.833-40.75-27.5c-11.667-11.667-20.833-25.25-27.5-40.75-6.667-15.5-10-32.083-10-49.75V64.5ZM787 320 576 109v147c0 9 1.667 17.417 5 25.25 3.333 7.833 7.833 14.583 13.5 20.25s12.417 10.167 20.25 13.5 16.25 5 25.25 5h147Z"/>
</svg>

<svg width="1024" height="1024" viewBox="0 0 1024 1024" fill="none" xmlns="http://www.w3.org/2000/svg">
<mask id="mask0_12_156" style="mask-type:luminance" maskUnits="userSpaceOnUse" x="128" y="0" width="768" height="1024">
<path d="M896 0H128V1024H896V0Z" fill="white"/>
</mask>
<g mask="url(#mask0_12_156)">
<path d="M896 392V896C896 913.667 892.667 930.25 886 945.75C879.333 961.25 870.167 974.833 858.5 986.5C846.833 998.167 833.25 1007.33 817.75 1014C802.25 1020.67 785.667 1024 768 1024H256C238.333 1024 221.75 1020.67 206.25 1014C190.75 1007.33 177.167 998.167 165.5 986.5C153.833 974.833 144.667 961.25 138 945.75C131.333 930.25 128 913.667 128 896V128C128 110.333 131.333 93.7501 138 78.25C144.667 62.7501 153.833 49.1667 165.5 37.5C177.167 25.8334 190.75 16.6667 206.25 10C221.75 3.33337 238.333 0 256 0H504C521 0 537.333 3.25 553 9.75C568.667 16.25 582.5 25.5 594.5 37.5L858.5 301.5C870.5 313.5 879.75 327.333 886.25 343C892.75 358.667 896 375 896 392ZM512 64.5C510.667 64.1667 509.333 64.0001 508 64H256C247 64.0001 238.667 65.6667 231 69C223.333 72.3334 216.583 76.9167 210.75 82.75C204.917 88.5834 200.333 95.3334 197 103C193.667 110.667 192 119 192 128V896C192 905 193.667 913.417 197 921.25C200.333 929.083 204.833 935.833 210.5 941.5C216.167 947.167 222.917 951.667 230.75 955C238.583 958.333 247 960 256 960H768C777 960 785.333 958.333 793 955C800.667 951.667 807.417 947.083 813.25 941.25C819.083 935.417 823.667 928.667 827 921C830.333 913.333 832 905 832 896V388C832 386.667 831.833 385.333 831.5 384H640C622.333 384 605.75 380.667 590.25 374C574.75 367.333 561.167 358.167 549.5 346.5C537.833 334.833 528.667 321.25 522 305.75C515.333 290.25 512 273.667 512 256V64.5ZM787 320L576 109V256C576 265 577.667 273.417 581 281.25C584.333 289.083 588.833 295.833 594.5 301.5C600.167 307.167 606.917 311.667 614.75 315C622.583 318.333 631 320 640 320H787Z" fill="white"/>
</g>
</svg>
